X:1
T:Dueil, double dueil
T:Geert van Turnhout
T:Source : La fleur des chansons à 3---Louvain---P.Phalèse---1574. Editor : André Vierendeels (05/09/18) Notes : Original clefs : C1, C3, C4 Original note values have been halved Editorial accidentals above the staff 
T:Dueil, double dueil
T:©
T:©
T:©
T:©
T:©
T:©
C:Geert van Turnhout
Z:©
%%score [ 1 [ 2 3 ] ]
L:1/8
Q:1/4=120
M:2/2
K:C
V:1 treble nm="Soprano" snm="S"
V:2 treble-8 nm="Tenor 1" snm="T 1"
V:3 treble-8 nm="Tenor 2" snm="T 2"
V:1
 z4 E4- | E4 G4 | F4 E2 A2- | A2 c3 B A2- | A2 G2 A2 A2- | A2 c2 B2 A2- | A2 GF G2 G2 | %7
w: Dueil,|_ dou-|ble dueil, dueil,|_ dou- * *|* ble dueil, dueil|_ dou- ble dueil,|_ _ _ _ ren-|
 G2 G2 A3 B | c2 B3 A G2- | GABG A4 | G4 z2 G2 | G2 G2 A2 B2 | G8- | G4 z2 G2 | G2 G2 A2 B2 | %15
w: fort de des- *|* plai- * *||sir, ren-|fort de des- plai-|sir,|_ ren-|fort de des- plai-|
 G2 c4 BA | GE A4 G2 | A8- | A8- | A8 | E4 G4 | F4 E4- | E4 z2 A2 | c2 B3 A A2- | A2 G2 A3 G | E8 | %26
w: sir, de _ _|_ _ des- plai-|sir,|_||tri- stes-|s'en- nuy,|_ tri-|stes- s'en- * *||nuy,|
 z2 E4 G2- | GF E4 D2 | E8- | E4 z2 G2 | G2 G2 A2 B2 | G2 c4 BA | GE A4 G2 | A4 z2 D2 | F2 D2 E4- | %35
w: tri- stes-|* * * s'en-|nuy,|_ en-|ne- mis de plai-|sir, de _ _|_ _ _ plai-|sir, de|ma lan- gueur,|
 E8 | z2 A2 c2 B2 | A2 A2 GFED | CDEF GABG | ABcA BG c2- | c2 B2 c2 c2- | c2 c2 c2 B2 | %42
w: _|pre- nez so-|li- ci- tu- * * *|||* * de, et|_ de mon mal,|
 A2 c3 B/A/GG | A6 B2 | c4 A4 | z2 G2 A2 B2 | G2 z A B2 c2 | AAA d2 ^c d2 | z d B2 G2 z G | %49
w: voy- ant _ _ _ l'a-|ma- ri-|tu- de,|ne me don-|nez, ne me don-|nez, ne me don- * nez|de vi- vre, de|
 E2 C2 z2 c2- | c2 BA GE A2- | A2 G2 A4 | z2 G2 A2 B2 | G2 z A B2 c2 | AAB d2 ^c d2 | %55
w: vi- vre plus|_ _ _ _ _ _|* loi- sir,|ne me don-|nez, ne me don-|nez, ne me don- * nez|
 z d B2 G2 z G | E2 C2 z2 c2- | c2 BA GE A2 | A2 ^G^F G A2 G | A8 |] %60
w: de vi- vre, de|vi- vre plus|_ _ _ _ _ _|loi- * * * * *|sir|
V:2
 A8 | c4 B4 | A2 A2 c3 d | e2 f2 e4 | z2 d2 f4 | e4 d4 | c2 BA B2 c2 | B2 e3 d/c/ d2 | e4 B4 | %9
w: Dueil,|dou- ble|dueil, dueil dou- *|* ble dueil,|dueil dou-|ble dueil,|dueil _ _ _ _|dou- ble- * * *|dueil, ren-|
 B2 B2 c2 d2 | e8 | z4 z2 B2 | B2 B2 c2 d2 | B2 e2 e2 d2 | e2 z c c2 d2 | e2 A2 e2 e2 | %16
w: fort de des- plai-|sir,|ren-|fort de des- plai-|sir, de des- plai-|sir, ren- fort de|des- plai- sir, ren-|
 e2 dc B2 B2 | A4 z2 d2 | f2 e3 d d2- | d2 c2 d2 A2- | A2 c4 B2 | A2 A2 c3 d | e2 E2 G2 F2 | %23
w: fort de _ des plai-|sir, tri-|stes- s'en- * *|* * nuy, tri-|* stes- s'en-|nuy, tri- stes- s'en-|nuy, tri- stes- s'en-|
 E4 z2 A2 | c2 B3 A A2- | A2 G2 A3 G | E2 B2 c4- | c2 B3 A A2- |"^#" A2 GF G2 G2 | G2 G2 A2 B2 | %30
w: nuy, tri-|stes- s'en- * *|* * nuy, _|_ tri- stes-|* s'en- * *|* * * nuy, en-|ne mis de plai-|
 G2 c2 c2 B2 | edcB A2 G2 | c4 B4 | A4 z2 A2 | D2 D2 A4 | z2 A2 c2 B2 | A6 G2 | F4 E4 | %38
w: sir, en- ne mis|de _ _ _ _ _|_ plai-|sir, de|ma lan- gueur,|pre- nez so-|li- ci-|tu- de,|
 z2 c2 d2 d2 | f6 e2 | d4 c2 f2 | f2 f2 e2 d2 | f3 e/d/ c2 d2 | f3 e c2 d2- | dG g4 f2 | g4 z2 d2 | %46
w: pre- nez so-|li- ci-|tu- de, et|de mon mal, voy-|ant _ _ _ l'a-|ma- * * ri-|* * tu- *|de, ne|
 e2 f2 d2 z e | f2 g2 e2 z d | B2 G2 z g e2 | c2 z c A2 F2 | z2 c4 BA | B2 B2 ABcd | e4 z2 d2 | %53
w: me don- nez, ne|me don- nez, de|vi- vre, de vi-|vre, de vi- vre|plus _ _|_ loi- sir, _ _ _|_ ne|
 e2 f2 d2 z e | f2 g2 e2 z d | B2 G2 z g e2 | c2 z c A2 F2 | z2 c2 c2 A2 | c4 B4 | A8 |] %60
w: me don- nez, ne|me don- nez de|vi- vre, de vi-|vre, de vi- vre|de vi- vre|plus loi-|sir.|
V:3
 z8 | z8 | z4 A4- | A4 c4 | B4 A4- | A4 z4 | E8 | G4 F4 | E4 z2 E2 | G4 F4 | E4 E4 | E2 E2 F2 G2 | %12
w: ||Dueil,|_ dou-|ble dueil,|_|Dueil,|dou- ble|dueil, dueil|dou- ble|dueil, ren-|fort de des- plai-|
 E4 z2 G2 | G2 G2 A2 B2 | c2 c2 A2 G2 | c4 z2 C2 | C2 C2 D2 E2 | F2 D3 EFG | A3 B c2 d2 | %19
w: sir, ren-|fort de des- plai-|sir, de des- plai-|sir, ren-|fort de des- plai-|sir, des- * * *|* * * plai-|
 A2 A2 F2 D2 | A4 z4 | z4 A4 | c2 B3 A A2- | A2 G2 A3 G | E4 z2 A2 | c2 B3 A A2- | A2 G2 A2 E2 | %27
w: sir, de des- plai-|sir,|tri-|stes- s'en- * *|* * nuy, _|_ tri-|stes- s'en- * *|* * nuy, tri-|
 G4 F4 |"^#" E4 z2 E2 | E2 E2 F2 G2 | E4 z2 E2 | E2 E2 F2 G2 | E8 | z2 A2 D2 D2 | A4 z2 A2 | %35
w: stes- s'en-|nuy, en-|ne mis de plai-|sir, en-|ne mis de plai-|sir,|de ma lan-|gueur, pre-|
 c3 B A2 G2 | F4 E4 | z2 A2 c2 B2 | A4 G4 | F4 G4- | G4 z2 F2 | F2 F2 C2 G2 | F4 z2 G2 | F6 D2 | %44
w: nez so- li- ci-|tu- de,|pre- nez so-|li- ci-|tu- de,|_ et|de mon mal, voy-|ant l'a-|ma- ri-|
 E4 D4 | z2 E2 F2 G2 | Cc F2 G2 A2 | z d G2 A2 D2 | z2 G2 E2 C2 | z c A2 F4 | C3 D E2 F2 | %51
w: tu- de,|ne me don-|nez, ne me don- nez,|ne me don- nez,|de vi- vre,|de vi- vre,|plus- * * loi-|
 E4 z2 A2- | AG/F/ E2 F2 G2 | Cc F2 G2 A2 | z d G2 A2 D2 | z2 G2 E2 C2 | z c A2 F4 | C3 D EC F2 | %58
w: sir, ne|_ _ _ _ me don-|nez, ne me don- nez,|ne me don- nez|de vi- vre,|de vi- vre|plus- * * * *|
 E8 | A8 |] %60
w: loi-|sir.|

